X:461
T: Ach Mutter, herzliebste Mutter (5-57), S. 95
N: P0731
O: Lothringen
S: MERKELBACH-PINCK, Angelika: Verklingende Weisen, Bd 5, Kassel 1962]
R: Liebe, Konflikt/ Mutter - Tochter]
M: 3/8
L: 1/8
K: F
C | FFFF2A | G2EC2
C | F2FFGA | G2
G | B2BBAG | A2cA2
F | G2BG2E | F2Ac2
G | B2BBAG | A2cA2
F | G2GC2C | F3z2

